src/assets/images/Send.svg

<svg width="33" height="32" viewBox="0 0 33 32" fill="none" xmlns="http://www.w3.org/2000/svg">
<path d="M31.4966 0.931172C30.6963 0.109757 29.5118 -0.196261 28.4074 0.125863L2.65282 7.61524C1.48754 7.93897 0.661604 8.8683 0.439113 10.0489C0.21182 11.2504 1.00574 12.7757 2.04297 13.4135L10.0959 18.3629C10.9218 18.8702 11.9878 18.743 12.6713 18.0537L21.8927 8.77488C22.3569 8.2917 23.1252 8.2917 23.5894 8.77488C24.0536 9.24196 24.0536 9.99895 23.5894 10.4821L14.352 19.7625C13.6669 20.4503 13.5389 21.5213 14.0431 22.3524L18.9635 30.486C19.5397 31.4524 20.5321 32 21.6206 32C21.7486 32 21.8927 32 22.0207 31.9839C23.2693 31.8228 24.2617 30.9692 24.6298 29.7612L32.2649 4.03967C32.6011 2.94445 32.297 1.75259 31.4966 0.931172" fill="#00F6FF"/>
</svg>

<?xml version="1.0" encoding="utf-8"?>
<!-- Generator: Adobe Illustrator 26.2.1, SVG Export Plug-In . SVG Version: 6.00 Build 0)  -->
<svg version="1.1" id="Layer_1" xmlns="http://www.w3.org/2000/svg" xmlns:xlink="http://www.w3.org/1999/xlink" x="0px" y="0px"
	 viewBox="0 0 33 32" style="enable-background:new 0 0 33 32;" xml:space="preserve">
<style type="text/css">
	.st0{fill:#00A0FF;}
</style>
<path class="st0" d="M31.5,0.9c-0.8-0.8-2-1.1-3.1-0.8L2.7,7.6c-1.2,0.3-2,1.3-2.2,2.4C0.2,11.3,1,12.8,2,13.4l8.1,4.9
	c0.8,0.5,1.9,0.4,2.6-0.3l9.2-9.3c0.5-0.5,1.2-0.5,1.7,0c0.5,0.5,0.5,1.2,0,1.7l-9.2,9.3c-0.7,0.7-0.8,1.8-0.3,2.6l4.9,8.1
	c0.6,1,1.6,1.5,2.7,1.5c0.1,0,0.3,0,0.4,0c1.2-0.2,2.2-1,2.6-2.2L32.3,4C32.6,2.9,32.3,1.8,31.5,0.9"/>
</svg>
